X:1
T:Title
%%score ( 1 2 ) ( 3 4 )
L:1/8
M:3/4
K:Bb
V:1 treble nm="Grand Piano, Soprano"
V:2 treble 
V:3 bass nm="Choir Pad, Sonoma, 77.77, Sankey"
V:4 bass 
V:1
 [DF]2 [B,D]2 [CE]2 | [DF]4 [Fd]2 | [Ec]2 [DB]2 [EA]2 | [DB]4 z2 | [EG]2 [FA]2 [GB]2 | %5
 [DF]4 [Fd]2 | d2 c2 [=EB]2 | [Fc]4 z2 | [DF]2 [B,D]2 [CE]2 | [DF]4 [Fd]2 | [Ec]2 [DB]2 [EA]2 | %11
 [DB]4 z2 | G2 A2 [_DB]2 | [DF]4 [Fd]2 | c2 G2 [EA]2 | [DB]6- | [DB]4 z2 |] %17
V:2
 x6 | x6 | x6 | x6 | x6 | x6 | =E4 z2 | x6 | x6 | x6 | x6 | x6 | _D4 z2 | x6 | E4 z2 | x6 | x6 |] %17
V:3
 B,2 F,2 [B,,F,]2 | [B,,B,]4 [B,,B,]2 | A,2 B,2 [F,C]2 | [B,,B,]4 z2 | [E,B,]4 [E,B,]2 | B,4 B,2 | %6
w: By~Ira~David~Sankey,~1887 * *||||||
 [G,B,]4 [G,C]2 | [F,A,]4 z2 | B,2 F,2 [B,,F,]2 | [B,,B,]4 [B,,B,]2 | A,2 B,2 [F,C]2 | [G,B,]4 z2 | %12
w: ||||||
 B,2 A,2 [=E,G,]2 | [F,B,]4 [F,B,]2 | A,2 B,2 [F,C]2 | [B,,B,]6- | [B,,B,]4 z2 |] %17
w: |||||
V:4
 B,,4 z2 | x6 | F,4 z2 | x6 | x6 | x6 | x6 | x6 | B,,4 z2 | x6 | F,4 z2 | x6 | =E,4 z2 | x6 | %14
 F,4 z2 | x6 | x6 |] %17

